X:115 
T:Listowel Fiddler* (slide), The  
S:Fiddler Tom Barrett (Listowel,Co. Kerry)
F:file ID: cre.5/115list_f
B:CRE5.067 (gan ainm)
Q:180
M:12/8
R:slide
K:D
A|def ABc d2d dBA|e2e efg a3 a2A|
def ABc d2d dBA|a2a age d3 d2:|
a|afd def g3 f2e|def edB e3 efg|
afd def g3 f2e|def edB d3 d2:|

%%%

